src/sponsor_logos/altium.svg

<svg xmlns="http://www.w3.org/2000/svg" xml:space="preserve" style="fill-rule:evenodd;clip-rule:evenodd;stroke-linejoin:round;stroke-miterlimit:2" viewBox="0 0 219 49"><path d="M192.033 509.418h13.221l-11.752 46.875h-13.221zM211.531 509.953h13.221l-2.805 10.817h5.609l-2.003 8.013h-5.609l-4.14 16.96c-.534 1.869.401 2.805 2.538 2.671h2.27l-2.003 7.879c-2.671.268-5.209.401-7.479.401-4.007 0-6.811-.534-8.28-1.603-1.603-1.068-1.87-3.605-.801-7.345zM232.364 520.77h13.221l-8.814 35.523H223.55zM251.595 520.77h13.355l-5.877 23.504c-.801 2.805.134 4.274 2.538 4.274 2.671 0 4.274-1.469 5.075-4.274l5.875-23.504h13.221l-8.947 35.523h-13.22l1.067-4.273h-.134q-4.006 5.208-11.217 5.208c-3.071 0-5.476-.667-7.079-2.003-1.736-1.335-2.136-3.873-1.335-7.613zM344.01 521.838c-1.736-1.335-4.14-2.003-7.345-2.003-2.004 0-4.14.4-6.144 1.201-2.136.935-4.006 2.272-5.609 4.274-.267-1.736-1.202-3.205-2.537-4.14-1.335-.801-3.473-1.335-6.277-1.335-4.807 0-8.681 1.87-11.352 5.341h-.133l1.068-4.273h-13.355l-8.948 35.524H296.6l5.876-23.504c.801-2.805 2.404-4.274 4.941-4.14 2.538-.134 3.473 1.335 2.671 4.14l-5.876 23.504h13.221l5.877-23.504c.801-2.805 2.403-4.274 5.075-4.14 2.537-.134 3.472 1.335 2.67 4.14l-5.875 23.504h5.875c4.14 0 8.146-2.805 8.948-6.544l5.208-20.299c.801-3.739.401-6.276-1.201-7.746M177.476 556.293l-1.736-46.875h-7.879c-6.677.267-12.153 3.873-15.225 9.348l-20.165 37.527 15.224-.133 3.606-8.013h11.352l-.401 8.146zm-22.302-17.094 9.081-19.498-1.069 19.498z" style="fill:#1a67bb" transform="translate(-135.49 -521.03)scale(1.0228)"/></svg>

<?xml version="1.0" encoding="UTF-8" standalone="no"?>
<!DOCTYPE svg PUBLIC "-//W3C//DTD SVG 1.1//EN" "http://www.w3.org/Graphics/SVG/1.1/DTD/svg11.dtd">
<svg width="100%" height="100%" viewBox="0 0 219 49" version="1.1" xmlns="http://www.w3.org/2000/svg" xmlns:xlink="http://www.w3.org/1999/xlink" xml:space="preserve" style="fill-rule:evenodd;clip-rule:evenodd;stroke-linejoin:round;stroke-miterlimit:2;">
    <g transform="matrix(1,0,0,1,-0.999996,-0.549799)">
        <g transform="matrix(1.0228,0,0,1.0228,-134.49,-520.481)">
            <g id="Layer-1" serif:id="Layer 1">
                <g id="g4039">
                    <path id="path3089" d="M192.033,509.418L205.254,509.418L193.502,556.293L180.281,556.293L192.033,509.418" style="fill:rgb(26,103,187);"/>
                    <path id="path3091" d="M211.531,509.953L224.752,509.953L221.947,520.77L227.556,520.77L225.553,528.783L219.944,528.783L215.804,545.743C215.27,547.612 216.205,548.548 218.342,548.414L220.612,548.414L218.609,556.293C215.938,556.561 213.4,556.694 211.13,556.694C207.123,556.694 204.319,556.16 202.85,555.091C201.247,554.023 200.98,551.486 202.049,547.746L211.531,509.953" style="fill:rgb(26,103,187);"/>
                    <path id="path3093" d="M232.364,520.77L245.585,520.77L236.771,556.293L223.55,556.293L232.364,520.77" style="fill:rgb(26,103,187);"/>
                    <path id="path3095" d="M251.595,520.77L264.95,520.77L259.073,544.274C258.272,547.079 259.207,548.548 261.611,548.548C264.282,548.548 265.885,547.079 266.686,544.274L272.561,520.77L285.782,520.77L276.835,556.293L263.615,556.293L264.682,552.02L264.548,552.02C261.877,555.492 258.138,557.228 253.331,557.228C250.26,557.228 247.855,556.561 246.252,555.225C244.516,553.89 244.116,551.352 244.917,547.612L251.595,520.77" style="fill:rgb(26,103,187);"/>
                    <path id="path3097" d="M344.01,521.838C342.274,520.503 339.87,519.835 336.665,519.835C334.661,519.835 332.525,520.235 330.521,521.036C328.385,521.971 326.515,523.308 324.912,525.31C324.645,523.574 323.71,522.105 322.375,521.17C321.04,520.369 318.902,519.835 316.098,519.835C311.291,519.835 307.417,521.705 304.746,525.176L304.613,525.176L305.681,520.903L292.326,520.903L283.378,556.427L296.6,556.427L302.476,532.923C303.277,530.118 304.88,528.649 307.417,528.783C309.955,528.649 310.89,530.118 310.088,532.923L304.212,556.427L317.433,556.427L323.31,532.923C324.111,530.118 325.713,528.649 328.385,528.783C330.922,528.649 331.857,530.118 331.055,532.923L325.18,556.427L331.055,556.427C335.195,556.427 339.201,553.622 340.003,549.883L345.211,529.584C346.012,525.845 345.612,523.308 344.01,521.838" style="fill:rgb(26,103,187);"/>
                    <path id="path3099" d="M177.476,556.293L175.74,509.418L167.861,509.418C161.184,509.685 155.708,513.291 152.636,518.766L132.471,556.293L147.695,556.16L151.301,548.147L162.653,548.147L162.252,556.293L177.476,556.293ZM155.174,539.199L164.255,519.701L163.186,539.199L155.174,539.199" style="fill:rgb(26,103,187);"/>
                </g>
            </g>
        </g>
    </g>
</svg>
